X:169
T:Love Me Dearly THO4.169
M:6/8
L:1/8
Z:vmp. Peter Dunk 2010/11.from a transcription by Fynn Titford-Mock 2007
B:Thompson's Compleat Collection of 200 Favourite Country Dances Volume IV.
Q:3/8=110
K:A
agf edc|Bcd cBA|def edc|BcA GFE|agf edc|Bcd cBA|def edc|BAG A3:|
|:ece ece|fdf fdf|ece edc|BcA GFE|ece ece|fdf fdf|e>fe edc|BAG A3:|
